X:1089
T:Cradle Some
C:Joe Buchanan's Scottish Tome - Page 571.1
I:571 1
Z:Carl Allison
C:F. Scott Skinner
R:Folk
L:1/8
M:4/4
K:A
(AcBA) (e2 f2) | (e4 c2) z | (AcBA) (e2 c2) | {c}B6 c2 |
(AcBA) (e2 f2) | (e4 c2) A2 | {FG}(FEAB) {AB}c2 {Ac}B2 | A6 z |
(fdAd) (f2 a2) | (e4 c2) z | (AcBA) (e2 c2) | {c}B6 z |
(AcBA) (ef).g.a | (e4 c2) A2 | {FG}(FEAB) {AB}c2 {Ac}B2 | A6 z |]

